fs/mail_attach_20_filled.svg

<svg viewBox="0 0 20 20" fill="none" xmlns="http://www.w3.org/2000/svg" height="1em" width="1em">
  <path d="M10.3056 8.69658C10.5032 8.8939 10.7422 9.02459 10.9947 9.08868C10.7898 9.52238 10.7137 10.0017 10.7661 10.4694L10.0001 10.92L2.01526 6.22305C2.15312 4.97273 3.21302 4.00012 4.50008 4.00012H12.8745L10.3036 6.57526C9.71834 7.1616 9.71923 8.11135 10.3056 8.69658ZM11.0817 11.4438C11.1931 11.6402 11.3325 11.8251 11.4999 11.9925C12.4996 12.9922 14.1205 12.9909 15.12 11.9928L18.0001 9.12279V14.5001C18.0001 15.8808 16.8808 17.0001 15.5001 17.0001H4.50008C3.11937 17.0001 2 15.8808 2 14.5001V7.37312L9.74657 11.9311C9.90304 12.0231 10.0971 12.0231 10.2536 11.9311L11.0817 11.4438ZM15.2261 4.47583C15.8607 3.84135 16.8895 3.84139 17.524 4.47595C18.1586 5.11055 18.1586 6.13945 17.524 6.77405L17.514 6.78434L13.6564 10.6283L13.6455 10.6388C13.4268 10.8575 13.0722 10.8575 12.8536 10.6388C12.6349 10.4202 12.6349 10.0656 12.8536 9.84688C12.8579 9.84257 12.8621 9.83819 12.8662 9.83375L16.3527 6.35409C16.5482 6.15902 16.5485 5.84244 16.3534 5.64698C16.1584 5.45153 15.8418 5.45122 15.6463 5.64629L12.1463 9.13941C12.1408 9.14495 12.1354 9.15058 12.1302 9.15631C11.5373 9.76674 11.5427 10.7422 12.1464 11.346C12.7517 11.9512 13.7306 11.9551 14.3407 11.3577L14.3524 11.3465L18.2309 7.48172C18.2352 7.47748 18.2393 7.47318 18.2434 7.46883C19.2563 6.44275 19.2522 4.78987 18.2312 3.76884C17.206 2.74372 15.544 2.74372 14.5188 3.76884L10.9509 7.34219C10.7558 7.5376 10.756 7.85418 10.9514 8.0493C11.1468 8.24441 11.4634 8.24418 11.6585 8.04877L15.2261 4.47583Z" fill="#212121"/>
</svg>

<svg viewBox="0 0 20 20" fill="none" xmlns="http://www.w3.org/2000/svg" height="1em" width="1em">
  <path d="M10.306 8.697c.197.197.436.328.689.392a2.565 2.565 0 0 0-.229 1.38L10 10.92 2.015 6.223A2.5 2.5 0 0 1 4.5 4h8.375l-2.571 2.575a1.5 1.5 0 0 0 .002 2.122Zm.776 2.747a2.561 2.561 0 0 0 4.038.549L18 9.123V14.5a2.5 2.5 0 0 1-2.5 2.5h-11A2.5 2.5 0 0 1 2 14.5V7.373l7.747 4.558a.5.5 0 0 0 .507 0l.828-.487Zm4.144-6.968a1.625 1.625 0 0 1 2.298 2.298l-.01.01-3.858 3.844-.01.01a.56.56 0 1 1-.78-.804l3.487-3.48a.5.5 0 1 0-.707-.708l-3.5 3.493a1.56 1.56 0 0 0 2.194 2.218l.012-.01 3.879-3.865a2.625 2.625 0 1 0-3.712-3.713L10.95 7.342a.5.5 0 0 0 .707.707l3.568-3.573Z" fill="#212121"/>
</svg>
